X:918
M:C|
L:1/8
K:D
|:f2 fd g2 ge|f2 fd ed BA|f2 fd g2 ge|af ed B2 de|f2 df g2 eg|
f2 fd ed BA|de fg af ba|gf ed B2 d2:|

